X: 26773
T: Millenium, The
R: waltz
M: 3/4
K: Dmajor
|:A,2 D3 A,|B,2 C3 B,|A,2 D2 F2|G3 A Bc|
d2 A2 F2|G2 F2 E2|D2 C3 B,|A,3 B, CB,|
A,2 D3 A,|B,2 C3 B,|A,2 D2 F2|G3 A Bc|
d2 A2 F2|G2 F2 E2|D6|1 D4 CB,:|2 D4 B2||
|:A3 B A2|A2 F2 A2|f3 g f2|e2 c2 e2|
a2 g2 e2|c2 d2 e2|d2 c3 B|A3 G FG|
A3 B A2|A2 F2 A2|f3 g f2|e2 c2 e2|
a2 g2 e2|c2 d2 e2|d6|1 d4 cB:|2 d4||

